img/icons.svg

<?xml version="1.0" standalone="no"?>
<!DOCTYPE svg PUBLIC "-//W3C//DTD SVG 1.1//EN" "http://www.w3.org/Graphics/SVG/1.1/DTD/svg11.dtd">
<svg width="100%" height="100%" viewBox="0 0 100 100" version="1.1" xmlns="http://www.w3.org/2000/svg" xmlns:xlink="http://www.w3.org/1999/xlink" xml:space="preserve" style="fill-rule:evenodd;clip-rule:evenodd;stroke-linejoin:round;stroke-miterlimit:1.41421;">
    <g id="codepen-logo" transform="matrix(1,0,0,1,-42,42)">
        <path d="M141.8,-7.9C141.8,-8 141.8,-8 141.8,-8.1C141.8,-8.2 141.8,-8.3 141.7,-8.5C141.7,-8.6 141.7,-8.6 141.6,-8.7C141.6,-8.8 141.5,-8.9 141.5,-9C141.5,-9.1 141.4,-9.1 141.4,-9.2C141.4,-9.3 141.3,-9.4 141.3,-9.5C141.3,-9.6 141.2,-9.6 141.2,-9.7C141.1,-9.8 141.1,-9.9 141,-10C140.9,-10 140.9,-10 140.8,-10.1C140.7,-10.2 140.7,-10.3 140.6,-10.3C140.5,-10.4 140.5,-10.4 140.4,-10.5C140.3,-10.6 140.2,-10.6 140.2,-10.7C140.1,-10.7 140.1,-10.8 140,-10.8L139.9,-10.9L94.3,-41.2C92.9,-42.2 91,-42.2 89.5,-41.2L43.8,-10.9L43.7,-10.8C43.6,-10.8 43.6,-10.7 43.5,-10.7C43.4,-10.6 43.3,-10.6 43.3,-10.5C43.2,-10.4 43.2,-10.4 43.1,-10.3C43,-10.2 43,-10.1 42.9,-10L42.8,-9.9C42.7,-9.8 42.7,-9.7 42.6,-9.6C42.6,-9.5 42.5,-9.5 42.5,-9.5C42.4,-9.4 42.4,-9.3 42.4,-9.2C42.4,-9.1 42.3,-9.1 42.3,-9C42.3,-8.9 42.2,-8.8 42.2,-8.7C42.2,-8.6 42.2,-8.6 42.1,-8.5C42.1,-8.4 42,-8.3 42,-8.1L42,24C42,24.1 42,24.3 42.1,24.4C42.1,24.5 42.1,24.5 42.2,24.6C42.2,24.7 42.3,24.9 42.3,24.9C42.3,25 42.3,25 42.4,25.1C42.4,25.2 42.5,25.2 42.5,25.4L42.6,25.5C42.7,25.6 42.7,25.6 42.7,25.8C42.7,25.8 42.8,25.9 42.8,26C42.9,26 42.9,26 43.1,26.2C43.2,26.2 43.2,26.3 43.2,26.4C43.3,26.5 43.3,26.5 43.5,26.6C43.6,26.6 43.6,26.7 43.6,26.7L43.7,26.8L89.3,57.4C90,57.9 90.9,58.1 91.7,58.1C92.5,58.1 93.4,57.9 94.1,57.4L139.8,27L139.9,26.9C140,26.9 140,26.8 140.1,26.8C140.2,26.7 140.3,26.7 140.3,26.6C140.4,26.5 140.4,26.5 140.5,26.4C140.6,26.3 140.6,26.2 140.7,26.2C140.7,26.1 140.8,26.1 140.8,26C140.9,25.9 140.9,25.8 141,25.7C141,25.6 141.1,25.6 141.1,25.5C141.2,25.4 141.2,25.3 141.2,25.2C141.2,25.1 141.3,25.1 141.3,25C141.3,24.9 141.4,24.8 141.4,24.7C141.4,24.6 141.4,24.6 141.5,24.5C141.5,24.4 141.6,24.3 141.6,24.1C141.6,24 141.6,24 141.6,23.9C141.6,23.7 141.6,23.5 141.6,23.3L141.6,-7.3C141.9,-7.5 141.9,-7.6 141.8,-7.9ZM96.2,-29.8L129.8,-7.4L114.8,2.7L96.2,-9.7L96.2,-29.8ZM87.6,-29.8L87.6,-9.8L69,2.7L53.9,-7.3L87.6,-29.8ZM50.5,0.7L61.2,7.9L50.5,15.1L50.5,0.7ZM87.6,45.5L53.9,23.2L68.9,13.1L87.5,25.6L87.6,45.5ZM91.9,18.1L76.7,7.9L91.9,-2.2L107.1,8L91.9,18.1ZM96.2,45.5L96.2,25.5L114.8,13L129.8,23.1L96.2,45.5ZM133.3,15.1L122.6,7.9L133.3,0.7L133.3,15.1Z" style="fill-rule:nonzero;"/>
    </g>
    <g id="twitter-logo" transform="matrix(1,0,0,1,-42,42)">
        <path d="M142,-14.9C138.3,-13.3 134.4,-12.2 130.2,-11.7C134.4,-14.2 137.7,-18.3 139.2,-23.1C135.2,-20.7 130.8,-19 126.2,-18.1C122.5,-22.1 117.1,-24.6 111.2,-24.6C99.9,-24.5 90.7,-15.3 90.7,-4C90.7,-2.4 90.9,-0.8 91.2,0.7C74.1,-0.1 59,-8.3 48.9,-20.7C47.1,-17.7 46.1,-14.1 46.1,-10.4C46.1,-3.3 49.7,3 55.2,6.7C51.8,6.6 48.7,5.7 45.9,4.1C45.9,4.2 45.9,4.3 45.9,4.4C45.9,14.3 53,22.6 62.4,24.5C60.7,25 58.9,25.2 57,25.2C55.7,25.2 54.4,25.1 53.1,24.8C55.7,33 63.3,38.9 72.3,39C65.3,44.5 56.4,47.8 46.8,47.8C45.1,47.8 43.5,47.7 41.9,47.5C51,53.3 61.8,56.7 73.4,56.7C111.1,56.7 131.8,25.4 131.8,-1.7C131.8,-2.6 131.8,-3.5 131.7,-4.4C135.8,-7.1 139.3,-10.7 142,-14.9Z" style="fill-rule:nonzero;"/>
    </g>
    <g id="github-logo" transform="matrix(1,0,0,1,-42,42)">
        <path d="M91.9,-40.8C64.3,-40.8 41.9,-18.4 41.9,9.2C41.9,31.3 56.2,50 76.1,56.6C78.6,57.1 79.5,55.5 79.5,54.2C79.5,53 79.5,49.9 79.4,45.7C65.5,48.7 62.6,39 62.6,39C60.3,33.2 57,31.7 57,31.7C52.5,28.6 57.3,28.7 57.3,28.7C62.3,29.1 65,33.9 65,33.9C69.5,41.5 76.7,39.3 79.5,38.1C80,34.9 81.2,32.7 82.7,31.4C71.6,30.2 59.9,25.9 59.9,6.7C59.9,1.2 61.8,-3.2 65,-6.7C64.5,-8 62.8,-13.1 65.5,-19.9C65.5,-19.9 69.7,-21.2 79.2,-14.8C83.2,-15.9 87.5,-16.5 91.7,-16.5C95.9,-16.5 100.2,-15.9 104.2,-14.8C113.7,-21.3 117.9,-19.9 117.9,-19.9C120.6,-13 118.9,-7.9 118.4,-6.7C121.6,-3.2 123.5,1.3 123.5,6.7C123.5,25.9 111.8,30.1 100.7,31.4C102.5,32.9 104.1,36 104.1,40.7C104.1,47.4 104,52.8 104,54.4C104,55.7 104.9,57.3 107.4,56.8C127.6,50 141.9,31.3 141.9,9.2C141.9,-18.4 119.5,-40.8 91.9,-40.8Z" style="fill-rule:nonzero;"/>
    </g>
    <g id="hamburg-logo" transform="matrix(1,0,0,1,-42,42)">
        <path d="M98.7,-23.7L85.3,-23.7C85.3,-25.7 86.7,-27.4 88.7,-28.2C88.6,-28.4 88.6,-28.6 88.6,-28.9C88.6,-29.8 89.2,-30.7 90.2,-31.1L90.2,-35.7L87.1,-35.7L87.1,-38.3L90.2,-38.3L90.2,-42L93.6,-42L93.6,-38.4L96.7,-38.4L96.7,-35.8L93.5,-35.8L93.5,-31.3C94.5,-30.8 95.2,-30 95.2,-29C95.2,-28.8 95.1,-28.5 95.1,-28.3C97.2,-27.4 98.7,-25.7 98.7,-23.7ZM75.4,8.1L75.4,-16.6L62,-16.6L62,8L75.4,8.1ZM98.7,7.9L98.7,-16.4L85.2,-16.4L85.2,7.9L98.7,7.9ZM121.8,7.9L121.8,-16.4L108.4,-16.4L108.4,7.9L121.8,7.9ZM127.1,9.6L121.4,9.6L121.4,13.2L116.3,13.2L116.3,9.6L110.6,9.6L110.6,13.2L105.5,13.2L105.5,9.6L99.9,9.6L99.9,13.2L94.9,13.2L94.9,9.6L89.2,9.6L89.2,13.2L84.1,13.2L84.1,9.6L78.4,9.6L78.4,13.2L73.3,13.2L73.3,9.6L67.6,9.6L67.6,13.2L62.5,13.2L62.5,9.6L56.8,9.6L56.8,20L126.9,20C127.1,20 127.1,9.6 127.1,9.6ZM66.4,-29.2L68.7,-25.4L71,-29.2L75.7,-29.2L73.3,-33L75.7,-36.8L71,-36.8L68.7,-40.6L66.4,-36.8L61.7,-36.8L64.1,-33L61.7,-29.2L66.4,-29.2ZM112.8,-29.2L115.1,-25.4L117.4,-29.2L122.1,-29.2L119.7,-33L122.1,-36.8L117.4,-36.8L115.1,-40.6L112.8,-36.8L108.1,-36.8L110.5,-33L108.1,-29.2L112.8,-29.2ZM78.2,-19.5L78.2,-20.5L78.2,-23.8L75.3,-23.8L75.3,-22L72.9,-22L72.9,-23.8L70,-23.8L70,-22L67.6,-22L67.6,-23.8L64.7,-23.8L64.7,-22L62.3,-22L62.3,-23.8L59.4,-23.8L59.4,-17.6L78.2,-17.6L78.2,-19.5ZM124.4,-19.5L124.4,-20.5L124.4,-23.8L121.5,-23.8L121.5,-22L119.1,-22L119.1,-23.8L116.2,-23.8L116.2,-22L113.8,-22L113.8,-23.8L110.9,-23.8L110.9,-22L108.5,-22L108.5,-23.8L105.6,-23.8L105.6,-17.6L124.5,-17.6L124.4,-19.5ZM101.3,-22.1L82.4,-22.1L82.4,-17.6L101.3,-17.6L101.3,-22.1L101.3,-22.1ZM55.2,52.8L55.2,58L128.6,58L128.6,52.8L55.2,52.8ZM82.4,34.8C82.4,30.7 86.6,27.3 91.9,27.3C97.2,27.3 101.4,30.6 101.4,34.8L101.4,51L127.7,51C127.7,51 125.8,44.2 123.9,37.1C122,30 121.7,21.5 121.7,21.5L62,21.5C62,21.5 62.1,27.8 59.9,36.3C57.7,44.8 56.1,51.1 56.1,51.1L82.4,51.1L82.4,34.8ZM91.9,29.3C87.8,29.3 84.5,31.9 84.5,35.1L84.5,50.5L99.2,50.5L99.2,35.1C99.2,32 95.9,29.3 91.9,29.3Z" style="fill-rule:nonzero;"/>
    </g>
    <g id="rss-logo" transform="matrix(1,0,0,1,-42,42)">
        <circle cx="56.9" cy="43" r="15" style=""/>
        <path d="M41.9,-10L41.9,10C68.4,10 89.9,31.5 89.9,58L109.9,58C109.9,20.5 79.4,-10 41.9,-10Z" style="fill-rule:nonzero;"/>
        <path d="M45,-42L42,-42L42,-22C86.1,-22 122,13.9 122,58L142,58C141.9,3.9 98.7,-40.4 45,-42Z" style="fill-rule:nonzero;"/>
    </g>
    <g id="mail-logo" transform="matrix(1,0,0,1,-42,42)">
        <path d="M92.4,26C91.3,26.2 90,26.1 88.9,25.6L42,6.1L42,49.3C42,53.5 45.4,56.8 49.5,56.8L134.4,56.8C138.6,56.8 141.9,53.4 141.9,49.3L141.9,5.9L94.3,25.5C93.7,25.8 93,25.9 92.4,26Z" style="fill-rule:nonzero;"/>
        <path d="M142,-3.2L142,-10C142,-14.2 138.6,-17.5 134.5,-17.5L49.5,-17.5C45.3,-17.5 42,-14.1 42,-10L42,-3.1L91.5,17.6L142,-3.2Z" style="fill-rule:nonzero;"/>
    </g>
    <g id="key-logo" transform="matrix(0.815541,1.06905,-1.06905,0.815541,82.1305,-27.0277)">
        <path d="M25.821,13.892C25.82,13.875 25.82,13.857 25.82,13.84C25.82,12.697 26.748,11.769 27.891,11.769C29.035,11.769 29.963,12.697 29.963,13.84C29.963,13.851 29.963,13.862 29.963,13.872C30.628,13.312 31.364,12.896 32.104,12.709C32.366,12.616 32.635,12.536 32.91,12.469C38.164,11.199 44.012,16.27 45.569,22.712C47.127,29.154 44.248,35.797 38.994,37.067C38.783,37.118 38.593,37.138 38.284,37.212C35.981,37.769 32.639,36.482 31.249,34.427L31.249,36.524C32.024,36.525 32.653,37.155 32.653,37.93C32.653,38.705 32.024,39.335 31.249,39.336L31.249,40.056C32.024,40.057 32.653,40.686 32.653,41.462C32.653,42.237 32.024,42.867 31.249,42.868L31.249,70.242L33.78,70.242C34.056,70.242 34.321,70.352 34.517,70.547C34.712,70.743 34.822,71.008 34.822,71.285C34.822,72.541 34.822,74.485 34.822,74.485L38.639,74.485C38.639,74.485 38.639,72.541 38.639,71.285C38.639,70.709 39.105,70.242 39.681,70.242C41.769,70.242 46.443,70.242 48.531,70.242C49.107,70.242 49.574,70.709 49.574,71.285C49.574,72.84 49.574,75.75 49.574,77.305C49.574,77.881 49.107,78.347 48.531,78.347C47.956,78.347 47.243,78.347 46.668,78.347C46.092,78.347 45.625,77.881 45.625,77.305C45.625,76.055 45.625,74.125 45.625,74.125L41.809,74.125C41.809,74.125 41.809,76.055 41.809,77.305C41.809,77.881 41.342,78.347 40.766,78.347C38.817,78.347 34.816,78.347 34.816,78.347L34.816,82.185C34.816,82.185 38.817,82.185 40.766,82.185C41.342,82.185 41.809,82.651 41.809,83.227C41.809,84.363 41.809,86.021 41.809,86.021L45.625,86.021C45.625,86.021 45.625,84.363 45.625,83.227C45.625,82.651 46.092,82.185 46.668,82.185C47.243,82.185 47.956,82.185 48.531,82.185C49.107,82.185 49.574,82.651 49.574,83.227C49.574,84.752 49.574,87.574 49.574,89.099C49.574,89.375 49.464,89.641 49.268,89.836C49.073,90.032 48.808,90.141 48.531,90.141C46.466,90.141 41.874,90.141 39.808,90.141C39.532,90.141 39.267,90.032 39.071,89.836C38.876,89.641 38.766,89.375 38.766,89.099L38.766,86.412L34.949,86.412L34.949,89.159C34.949,89.701 34.509,90.141 33.967,90.141C32.87,90.141 31.249,90.141 31.249,90.141C31.249,90.141 31.249,92.259 31.249,93.927C31.249,94.452 31.041,94.955 30.67,95.326C30.298,95.697 29.795,95.906 29.27,95.906C28.411,95.906 27.407,95.906 26.548,95.906C25.455,95.906 24.569,95.02 24.569,93.927L24.569,42.868L24.548,42.868C23.772,42.868 23.142,42.238 23.142,41.462C23.142,40.686 23.772,40.056 24.548,40.056L24.569,40.056L24.569,39.336L24.548,39.336C23.772,39.336 23.142,38.706 23.142,37.93C23.142,37.154 23.772,36.524 24.548,36.524L24.569,36.524L24.569,34.338C23.217,36.445 19.812,37.777 17.476,37.212C17.167,37.138 16.977,37.118 16.766,37.067C11.513,35.797 8.633,29.154 10.191,22.712C11.748,16.27 17.596,11.199 22.85,12.469C23.125,12.536 23.394,12.616 23.656,12.709C24.404,12.898 25.149,13.321 25.821,13.892ZM31.079,29.749C31.726,28.443 32.924,27.422 34.45,27.053C38.538,26.064 37.252,31.424 35.123,31.589C34.759,31.617 34.746,31.405 34.601,31.599C33.523,33.045 36.783,34.561 38.764,32.599C41.09,30.807 42.398,27.078 41.532,23.497C40.663,19.899 38.042,17.288 35.138,16.772C35.119,16.802 35.143,16.789 35.125,16.785C30.789,15.725 31.028,18.876 31.897,19.906C32.187,20.25 32.481,19.345 33.032,19.334C36.195,19.268 35.113,23.224 33.551,23.602C31.262,24.155 28.957,23.066 27.88,21.092C26.803,23.066 24.498,24.155 22.21,23.602C20.648,23.224 19.565,19.268 22.728,19.334C23.328,19.346 23.466,20.376 23.863,19.906C24.732,18.876 24.953,15.707 20.616,16.766C20.599,16.77 20.641,16.802 20.622,16.772C17.719,17.288 15.097,19.899 14.228,23.497C13.362,27.078 14.67,30.807 16.996,32.599C18.977,34.561 22.238,33.045 21.159,31.599C21.014,31.405 21.001,31.617 20.637,31.589C18.508,31.424 17.222,26.064 21.31,27.053C22.861,27.428 24.074,28.477 24.712,29.814C24.814,29.555 24.969,29.316 25.17,29.115C25.555,28.731 26.077,28.514 26.621,28.514C27.439,28.514 28.379,28.514 29.197,28.514C29.741,28.514 30.263,28.731 30.648,29.115C30.832,29.299 30.978,29.515 31.079,29.749Z" style=""/>
    </g>
</svg>

<?xml version="1.0" encoding="utf-8"?>
<!-- Generator: Adobe Illustrator 19.1.0, SVG Export Plug-In . SVG Version: 6.00 Build 0)  -->
<svg version="1.1" id="Layer_1" xmlns="http://www.w3.org/2000/svg" xmlns:xlink="http://www.w3.org/1999/xlink" x="0px" y="0px"
	 viewBox="42 -42 100 100" style="enable-background:new 42 -42 100 100;" xml:space="preserve">
<g id="codepen-logo">
	<path d="M141.8-7.9c0-0.1,0-0.1,0-0.2s0-0.2-0.1-0.4c0-0.1,0-0.1-0.1-0.2c0-0.1-0.1-0.2-0.1-0.3s-0.1-0.1-0.1-0.2
		c0-0.1-0.1-0.2-0.1-0.3s-0.1-0.1-0.1-0.2c-0.1-0.1-0.1-0.2-0.2-0.3c-0.1,0-0.1,0-0.2-0.1c-0.1-0.1-0.1-0.2-0.2-0.2
		c-0.1-0.1-0.1-0.1-0.2-0.2s-0.2-0.1-0.2-0.2c-0.1,0-0.1-0.1-0.2-0.1c0,0,0,0-0.1-0.1L94.3-41.2c-1.4-1-3.3-1-4.8,0L43.8-10.9
		c0,0,0,0-0.1,0.1c-0.1,0-0.1,0.1-0.2,0.1c-0.1,0.1-0.2,0.1-0.2,0.2c-0.1,0.1-0.1,0.1-0.2,0.2C43-10.2,43-10.1,42.9-10l-0.1,0.1
		c-0.1,0.1-0.1,0.2-0.2,0.3c0,0.1-0.1,0.1-0.1,0.1c-0.1,0.1-0.1,0.2-0.1,0.3S42.3-9.1,42.3-9s-0.1,0.2-0.1,0.3s0,0.1-0.1,0.2
		c0,0.1-0.1,0.2-0.1,0.4C42-8,42-8,42-8c0,0.2,0,0.4,0,0.6v30.6c0,0.1,0,0.4,0,0.6V24c0,0.1,0,0.3,0.1,0.4c0,0.1,0,0.1,0.1,0.2
		c0,0.1,0.1,0.3,0.1,0.3c0,0.1,0,0.1,0.1,0.2c0,0.1,0.1,0.1,0.1,0.3l0.1,0.1c0.1,0.1,0.1,0.1,0.1,0.3c0,0,0.1,0.1,0.1,0.2
		c0.1,0,0.1,0,0.3,0.2c0.1,0,0.1,0.1,0.1,0.2c0.1,0.1,0.1,0.1,0.3,0.2c0.1,0,0.1,0.1,0.1,0.1s0,0,0.1,0.1l45.6,30.6
		c0.7,0.5,1.6,0.7,2.4,0.7s1.7-0.2,2.4-0.7L139.8,27c0,0,0,0,0.1-0.1c0.1,0,0.1-0.1,0.2-0.1c0.1-0.1,0.2-0.1,0.2-0.2
		c0.1-0.1,0.1-0.1,0.2-0.2c0.1-0.1,0.1-0.2,0.2-0.2c0-0.1,0.1-0.1,0.1-0.2c0.1-0.1,0.1-0.2,0.2-0.3c0-0.1,0.1-0.1,0.1-0.2
		c0.1-0.1,0.1-0.2,0.1-0.3s0.1-0.1,0.1-0.2s0.1-0.2,0.1-0.3s0-0.1,0.1-0.2c0-0.1,0.1-0.2,0.1-0.4c0-0.1,0-0.1,0-0.2
		c0-0.2,0-0.4,0-0.6V-7.3C141.9-7.5,141.9-7.6,141.8-7.9L141.8-7.9z M96.2-29.8l33.6,22.4l-15,10.1L96.2-9.7V-29.8z M87.6-29.8v20
		L69,2.7l-15.1-10L87.6-29.8L87.6-29.8z M50.5,0.7l10.7,7.2l-10.7,7.2V0.7z M87.6,45.5L53.9,23.2l15-10.1l18.6,12.5L87.6,45.5
		L87.6,45.5z M91.9,18.1L76.7,7.9L91.9-2.2L107.1,8L91.9,18.1z M96.2,45.5v-20L114.8,13l15,10.1L96.2,45.5z M133.3,15.1l-10.7-7.2
		l10.7-7.2V15.1z"/>
</g>
<g id="twitter-logo">
	<path d="M142-14.9c-3.7,1.6-7.6,2.7-11.8,3.2c4.2-2.5,7.5-6.6,9-11.4c-4,2.4-8.4,4.1-13,5c-3.7-4-9.1-6.5-15-6.5
		C99.9-24.5,90.7-15.3,90.7-4c0,1.6,0.2,3.2,0.5,4.7C74.1-0.1,59-8.3,48.9-20.7c-1.8,3-2.8,6.6-2.8,10.3c0,7.1,3.6,13.4,9.1,17.1
		c-3.4-0.1-6.5-1-9.3-2.6c0,0.1,0,0.2,0,0.3c0,9.9,7.1,18.2,16.5,20.1c-1.7,0.5-3.5,0.7-5.4,0.7c-1.3,0-2.6-0.1-3.9-0.4
		C55.7,33,63.3,38.9,72.3,39c-7,5.5-15.9,8.8-25.5,8.8c-1.7,0-3.3-0.1-4.9-0.3c9.1,5.8,19.9,9.2,31.5,9.2
		c37.7,0,58.4-31.3,58.4-58.4c0-0.9,0-1.8-0.1-2.7C135.8-7.1,139.3-10.7,142-14.9z"/>
</g>
<g id="github-logo">
	<path d="M91.9-40.8c-27.6,0-50,22.4-50,50c0,22.1,14.3,40.8,34.2,47.4c2.5,0.5,3.4-1.1,3.4-2.4c0-1.2,0-4.3-0.1-8.5
		c-13.9,3-16.8-6.7-16.8-6.7c-2.3-5.8-5.6-7.3-5.6-7.3c-4.5-3.1,0.3-3,0.3-3c5,0.4,7.7,5.2,7.7,5.2c4.5,7.6,11.7,5.4,14.5,4.2
		c0.5-3.2,1.7-5.4,3.2-6.7c-11.1-1.2-22.8-5.5-22.8-24.7c0-5.5,1.9-9.9,5.1-13.4c-0.5-1.3-2.2-6.4,0.5-13.2c0,0,4.2-1.3,13.7,5.1
		c4-1.1,8.3-1.7,12.5-1.7s8.5,0.6,12.5,1.7c9.5-6.5,13.7-5.1,13.7-5.1c2.7,6.9,1,12,0.5,13.2c3.2,3.5,5.1,8,5.1,13.4
		c0,19.2-11.7,23.4-22.8,24.7c1.8,1.5,3.4,4.6,3.4,9.3c0,6.7-0.1,12.1-0.1,13.7c0,1.3,0.9,2.9,3.4,2.4c20.2-6.8,34.5-25.5,34.5-47.6
		C141.9-18.4,119.5-40.8,91.9-40.8z"/>
</g>
<g id="hamburg-logo">
	<path d="M98.7-23.7H85.3c0-2,1.4-3.7,3.4-4.5c-0.1-0.2-0.1-0.4-0.1-0.7c0-0.9,0.6-1.8,1.6-2.2v-4.6h-3.1v-2.6h3.1V-42h3.4v3.6h3.1
		v2.6h-3.2v4.5c1,0.5,1.7,1.3,1.7,2.3c0,0.2-0.1,0.5-0.1,0.7C97.2-27.4,98.7-25.7,98.7-23.7z M75.4,8.1v-24.7H62V8L75.4,8.1
		L75.4,8.1z M98.7,7.9v-24.3H85.2V7.9H98.7z M121.8,7.9v-24.3h-13.4V7.9H121.8z M127.1,9.6h-5.7v3.6h-5.1V9.6h-5.7v3.6h-5.1V9.6
		h-5.6v3.6h-5V9.6h-5.7v3.6h-5.1V9.6h-5.7v3.6h-5.1V9.6h-5.7v3.6h-5.1V9.6h-5.7V20h70.1C127.1,20,127.1,9.6,127.1,9.6z M66.4-29.2
		l2.3,3.8l2.3-3.8h4.7L73.3-33l2.4-3.8h-4.7l-2.3-3.8l-2.3,3.8h-4.7l2.4,3.8l-2.4,3.8H66.4z M112.8-29.2l2.3,3.8l2.3-3.8h4.7
		l-2.4-3.8l2.4-3.8h-4.7l-2.3-3.8l-2.3,3.8h-4.7l2.4,3.8l-2.4,3.8H112.8z M78.2-19.5v-1v-3.3h-2.9v1.8h-2.4v-1.8h-2.9v1.8h-2.4v-1.8
		h-2.9v1.8h-2.4v-1.8h-2.9v3.3v1v1.9h18.8C78.2-17.6,78.2-19.5,78.2-19.5z M124.4-19.5v-1v-3.3h-2.9v1.8h-2.4v-1.8h-2.9v1.8h-2.4
		v-1.8h-2.9v1.8h-2.4v-1.8h-2.9v3.3v1v1.9h18.9L124.4-19.5L124.4-19.5z M101.3-22.1H82.4v4.5h18.9V-22.1z M55.2,52.8V58h73.4v-5.2
		H55.2z M82.4,34.8c0-4.1,4.2-7.5,9.5-7.5s9.5,3.3,9.5,7.5V51h26.3c0,0-1.9-6.8-3.8-13.9s-2.2-15.6-2.2-15.6H62
		c0,0,0.1,6.3-2.1,14.8s-3.8,14.8-3.8,14.8h26.3V34.8L82.4,34.8z M91.9,29.3c-4.1,0-7.4,2.6-7.4,5.8v15.4h14.7V35.1
		C99.2,32,95.9,29.3,91.9,29.3z"/>
</g>
<g id="rss-logo">
	<circle cx="56.9" cy="43" r="15"/>
	<path d="M41.9-10v20c26.5,0,48,21.5,48,48c0,0,0,0,0,0h20c0,0,0,0,0,0C109.9,20.5,79.4-10,41.9-10z"/>
	<path d="M45-42h-3v20c44.1,0,80,35.9,80,80c0,0,0,0,0,0h20c0,0,0,0,0,0C141.9,3.9,98.7-40.4,45-42z"/>
</g>
<g id="mail-logo">
	<path d="M92.4,26c-1.1,0.2-2.4,0.1-3.5-0.4L42,6.1v43.2c0,4.2,3.4,7.5,7.5,7.5h84.9c4.2,0,7.5-3.4,7.5-7.5V5.9L94.3,25.5
		C93.7,25.8,93,25.9,92.4,26z"/>
	<path d="M142-3.2V-10c0-4.2-3.4-7.5-7.5-7.5H49.5c-4.2,0-7.5,3.4-7.5,7.5v6.9l49.5,20.7L142-3.2z"/>
</g>
</svg>
